v/0.4.11/design-resources/icons/wf_icons/tags.svg

<?xml version="1.0" encoding="utf-8"?>
<!-- Generated by IcoMoon.io -->
<!DOCTYPE svg PUBLIC "-//W3C//DTD SVG 1.1//EN" "http://www.w3.org/Graphics/SVG/1.1/DTD/svg11.dtd">
<svg version="1.1" xmlns="http://www.w3.org/2000/svg" xmlns:xlink="http://www.w3.org/1999/xlink" width="544" height="512" viewBox="0 0 544 512">
<g>
</g>
	<path d="M496 32h-112c-26.4 0-63.273 15.273-81.941 33.941l-188.118 188.118c-18.667 18.667-18.667 49.214 0 67.882l140.118 140.117c18.667 18.668 49.214 18.668 67.882 0l188.117-188.117c18.669-18.668 33.942-55.541 33.942-81.941v-112c0-26.4-21.6-48-48-48zM432 192c-26.51 0-48-21.49-48-48s21.49-48 48-48 48 21.49 48 48-21.49 48-48 48zM43.313 299.313l171.189 171.189c-18.132 9.58-41.231 6.769-56.443-8.444l-140.118-140.117c-18.667-18.668-18.667-49.215 0-67.882l188.118-188.118c18.668-18.668 55.541-33.941 81.941-33.941l-244.687 244.686c-6.222 6.223-6.222 16.404 0 22.627z" fill="#595959" />
</svg>

<svg xmlns="http://www.w3.org/2000/svg" width="544" height="512" viewBox="0 0 544 512"><path stroke="#449FDB" d="M0 0"/><path d="M496 32H384c-26.4 0-63.273 15.273-81.94 33.94L113.94 254.06c-18.666 18.666-18.666 49.213 0 67.88l140.12 140.12c18.666 18.668 49.213 18.668 67.88 0l188.12-188.12C528.728 255.274 544 218.4 544 192V80c0-26.4-21.6-48-48-48zm-64 160c-26.51 0-48-21.49-48-48s21.49-48 48-48 48 21.49 48 48-21.49 48-48 48zM43.313 299.313l171.19 171.19c-18.133 9.58-41.232 6.768-56.444-8.445L17.94 321.94c-18.666-18.667-18.666-49.214 0-67.88L206.06 65.94C224.726 47.274 261.6 32 288 32L43.313 276.686c-6.222 6.223-6.222 16.404 0 22.627z" fill="#595959"/></svg>
